X:1
T:Is There a Heart O’erbound by Sorrow?
T:Edward Henry Joy, 1920
T:Is There a Heart O’erbound by Sorrow?
T:Public Domain
T:Public Domain
C:Edward Henry Joy, 1920
Z:Public Domain
%%score ( 1 2 ) ( 3 4 )
L:1/8
M:3/4
K:Eb
V:1 treble 
V:2 treble 
V:3 bass 
V:4 bass 
V:1
 E3 [EF] [EG]2 | [EB]4 [EG]2 | [FA]4 [EG]2 | [EG]2 [DF]4 | F3 [=EG] [FA]2 | [FA]4 [EA]2 | %6
w: 1.~Is there a|o’er- bound|by sor-|row? Is|there a life|down by|
w: 2.~No o- ther|so swift|to help|you, No|o- ther friend|quick to|
w: 3.~Come then at|de- lay|no long-|er! Heed|His en- treat-|kind and|
 ([DA]2 [EG]2) F2 | [EG]6 | E3 [EF] [EG]2 | [EB]4 [EG]2 | (E2 D2) [_DG]2 | [CG]2 [CF]4 | %12
w: care? * Come|the|cross, each bur-|bear- ing;|All * your|ie- ty—|
w: hear, * No|ther|place to leave|bur- den,|No * o-|one to|
w: sweet, * You|not|fear a dis-|point- ment;|You * shall|peace~at the|
 F3 [=EG] [FA]2 | ([FA]2 [=EG]2) F2 | (G2 E2) [DF]2 | E6 ||"^Refrain" [EG]3 [EF] E2 | %17
w: leave it there.|||||
w: hear your prayer.|||||
w: mer- cy seat.|||||
 [EG]3 [EF] E2 | [FA]4 [EG]2 | [DF]6 | [FA]3 [=EG] F2 | [FA]3 [=EG] F2 | (D2 E2) [FA]2 | [EG]6 | %24
w: |||||||
w: |||||||
w: |||||||
 [EB]3 [EA] [EG]2 | [EB]2 [FA]2 G2 | (G2 F2) [GB]2 | [FA]6 | [EG]3 [DF] [CE]2 | (C2 D2) [EG]2 | %30
w: ||||||
w: ||||||
w: ||||||
 (E4 D2) | [B,E]6 |] %32
w: ||
w: ||
w: ||
V:2
 E3 x3 | x6 | x6 | x6 | F3 x3 | x6 | x4 F2 | x6 | E3 x3 | x6 | A4 x2 | x6 | F3 x3 | x4 F2 | E4 x2 | %15
w: heart||||weighed||to||den||anx-|||||
w: friend||||so||o-||your||ther|||||
w: once;||||y||need||ap-||find|||||
 E6 || x4 E2 | x4 E2 | x6 | x6 | x4 F2 | x4 F2 | B4 x2 | x6 | x6 | x4 G2 | c4 x2 | x6 | x6 | %29
w: ||||||||||||||
w: ||||||||||||||
w: ||||||||||||||
 A4 x2 | F6 | x6 |] %32
w: |||
w: |||
w: |||
V:3
 [E,G,]3 [E,A,] [E,B,]2 | [G,B,]4 [E,B,]2 | [D,B,]4 [E,B,]2 | [B,,B,]2 [B,,B,]4 | %4
w: ~ ~ ~|~ ~|~ ~|~ ~|
 [A,C]3 [G,C] [F,C]2 | [F,C]4 [F,C]2 | (B,,2 C,2) [D,B,]2 | [E,B,]6 | [E,G,]3 [E,A,] [E,B,]2 | %9
w: ~ ~ ~|~ ~|~ * ~|~|~ ~ ~|
 [G,B,]4 [E,B,]2 | [F,B,]4 [E,B,]2 | [A,,B,]2 [A,,A,]4 | [A,C]3 [G,C] [F,C]2 | %13
w: ~ ~|~ ~|~ ~|~ ~ ~|
 ([F,C]2 [G,C]2) [A,C]2 | (B,2 [B,,G,]2) [B,,A,]2 | [E,G,]6 || [E,B,]3 [E,A,] [E,G,]2 | %17
w: ~ * ~|~ * ~|your|anx- i- e-|
 [E,B,]3 [E,A,] [E,G,]2 | [D,B,]4 [E,B,]2 | [B,,B,]6 | [F,C]3 [F,B,] [F,A,]2 | %21
w: ty, all your|care, Bring|to|the mer- cy|
 [F,C]3 [F,B,] [F,A,]2 | (B,,2 C,2) [D,B,]2 | [E,B,]6 | [G,B,]3 [F,B,] [E,B,]2 | %25
w: seat, leave it|there, * Ne-|a|bur- den He|
 [G,B,]2 [D,B,]2 [E,B,]2 | (=E,2 D,2) [E,C]2 | [F,C]6 | [B,,B,]3 [=B,,A,] [C,G,]2 | %29
w: can- not bear,|Ne- * ver|friend|like Je- sus!|
 [F,,A,]4 [G,,B,]2 | (C3 B, [B,,A,]2) | [E,G,]6 |] %32
w: |||
V:4
 x6 | x6 | x6 | x6 | x6 | x6 | B,4 x2 | x6 | x6 | x6 | x6 | x6 | x6 | x6 | B,2 x4 | x6 || x6 | x6 | %18
w: ||||||~||||||||All||||
 x6 | x6 | x6 | x6 | B,4 x2 | x6 | x6 | x6 | C4 x2 | x6 | x6 | x6 | A,,4 x2 | x6 |] %32
w: ||||ver||||a||||||

